X:2
%%text Set 97, continued
%%scale .8
T:Big Sciota (traditional)
M:C|
L:1/8
K:G
%%text Play pickup at start.
D ED|"G"G2GA Bcd2|B3A B3 B-|BAGB "D"AGED| "G"G3 G2 D ED|
GFGA Bcd2|"C"e3 e2-e2A|"G"BAGB "D"AGEG|"G"AG2 G2 D ED|
"G"G2GA Bcd2|B3A B3 B-|BAGB "D"AGED| "G"GE DB, A,G,3|
GFGA Bcd2|"C"e3 e2-e2 d|"G"BAGB "D"AGED|"G"G3 G2 A Bd|
|:"G"g3a ba g2|"A"e a2 a2-a2 e|aege fe d2|"C"Be2 e3ef|
gefg fed2|"Am"Be2 e2-e2A|"D"BAGB AGED|1 "G"G3 G2 A Bd:|2 "G"AG3-G|]
%%text Transition: Play G7 on last beat.

